Adwaita++/apps/scalable/whatsapp.svg

<svg enable-background="new" height="128" viewBox="0 0 128 128" width="128" xmlns="http://www.w3.org/2000/svg">
  <g transform="translate(.000062 -173)">
    <path d="m64 4a59.999995 59.999995 0 0 0 -60 60 59.999995 59.999995 0 0 0 9.857422 32.902344l-10.3437501 29.173826 30.8359371-9.91211-4.853515-2.89258-17.009766 4.0586 5.347656-15.08399a59.999995 59.999995 0 0 0 46.166016 21.75391 59.999995 59.999995 0 0 0 60-60 59.999995 59.999995 0 0 0 -60-60z" fill="#deddda" transform="translate(-.000062 173)"/>
    <rect fill="#d5d3cf" height="114" rx="56" width="112" x="8" y="179"/>
    <path d="m123.99993 235a59.999995 59.999995 0 0 1 -59.999985 59.99999 59.999995 59.999995 0 0 1 -60.0000069-59.99999 59.999995 59.999995 0 0 1 60.0000069-60 59.999995 59.999995 0 0 1 59.999985 60z" fill="#f6f5f4"/>
    <circle cx="64" cy="235" fill="#169d0c" r="54"/>
    <path d="m64.000045 181a54 54 0 0 0 -54 54 54 54 0 0 0 .0415 1.1709 54 54 0 0 1 53.9585-53.1709 54 54 0 0 1 53.958495 52.82813 54 54 0 0 0 .0415-.82813 54 54 0 0 0 -54.000005-54z" opacity=".1"/>
  </g>
  <path d="m41.643649 28.605163c-.52454-.0477-1.033768-.0451-1.409564.0341h-.0088c-1.099339.22706-2.477404 1.026789-5.459711 3.195874-1.791922 1.311603-4.250127 3.66531-4.82804 4.614231-1.340878 2.248706-1.265194 4.158796.367483 8.553405 2.799877 7.536236 6.891198 14.797725 12.270026 21.806348 10.2948 13.409124 23.263049 23.160819 39.502335 29.701322 2.06929.835612 2.74301.975607 4.36606.896862 1.96429-.09188 3.4561-.686862 5.56038-2.248711 2.3274-1.723719 5.65663-5.770515 6.5141-7.927351.80934-2.047465.59497-3.90243-.6081-5.350529-.68248-.800607-5.72663-4.825533-8.08465-6.439881-1.7893-1.220603-4.56293-2.900568-5.836-3.54806-1.67555-.835607-3.34673-.979982-4.97853-.4375-1.28619.433125-1.70618.800612-3.58297 3.101818-.97121 1.176854-1.86804 2.244336-1.98178 2.344957-.12688.100625-.53373.32375-.91434.494366-1.51368.691237-3.587342.275625-6.973448-1.378099-2.638007-1.273103-4.974156-2.887447-7.620042-5.263028-2.254337-2.008086-4.528363-4.637412-5.801433-6.680502-1.641866-2.633702-2.893499-6.049198-2.905311-7.938288 0-.8133.336425-1.968278.752029-2.554957.161867-.235812 1.190386-1.13004 2.289776-1.999335 8.74962-6.04006-1.639124-17.688293-7.758286-22.002783-.359608-.227062-.989144-.539429-1.392939-.675049-.41692-.14744-.953709-.25113-1.478248-.29925z" fill="#fff"/>
  <path d="m17.919293 86.819578-12.8255304 36.169162 38.7294674-12.62131-1.721247.2049-16.383224-27.427345z" opacity=".1" transform="matrix(.85142587 0 0 .85142587 3.663101 16.987057)"/>
  <g transform="matrix(.85142587 0 0 .85142587 3.663101 15.284205)">
    <path d="m17.919293 86.819578-12.8255304 36.169162 38.7294674-12.62131 1.270532-7.84744-19.375003-19.375005z" fill="#169d0c"/>
    <path d="m15.02894 84.918546-.173471.815829-15.03125025 42.390625 45.62250425-15.1582c-3.124116-1.33718-4.969981-2.53355-7.793445-4.11422l-27.289997 9.00094 9.104671-25.784498c-1.61215-2.372796-1.632254-2.387744-4.439012-7.150476z" fill="#f6f5f4"/>
  </g>
</svg>

<svg xmlns="http://www.w3.org/2000/svg" xmlns:xlink="http://www.w3.org/1999/xlink" style="enable-background:new" width="128" height="128" version="1.0" viewBox="0 0 128 128">
 <title id="title4162">
  Adwaita Icon Template
 </title>
 <defs>
  <linearGradient id="linearGradient950">
   <stop style="stop-color:#9a9996" id="stop946" offset="0"/>
   <stop style="stop-color:#77767b" id="stop948" offset="1"/>
  </linearGradient>
  <linearGradient id="linearGradient1001" x1="1660.857" x2="1662.99" y1="806.297" y2="812.882" gradientTransform="matrix(1.8293937,-0.81599442,0.81599442,1.8293937,-3645.9624,100.02949)" gradientUnits="userSpaceOnUse" xlink:href="#linearGradient950"/>
  <clipPath id="clipPath5154" clipPathUnits="userSpaceOnUse">
   <circle cx="128" cy="924.362" r="109.647" style="fill:url(#radialGradient5158)"/>
  </clipPath>
  <clipPath id="clipPath977" clipPathUnits="userSpaceOnUse">
   <circle cx="128" cy="924.362" r="109.647" style="fill:url(#radialGradient5158)"/>
  </clipPath>
  <clipPath id="clipPath4688" clipPathUnits="userSpaceOnUse">
   <path d="m 106.42383,889.60156 c -2.2448,-0.0524 -4.09304,1.75264 -4.09375,3.99805 v 32.64453 32.64453 c -4e-5,3.07923 3.33305,5.004 6,3.46485 l 28.26953,-16.32227 28.27148,-16.32227 c 2.66559,-1.54001 2.66559,-5.38772 0,-6.92773 l -28.27148,-16.32227 -28.26953,-16.32226 c -0.58054,-0.3353 -1.23603,-0.51932 -1.90625,-0.53516 z" style="fill:url(#radialGradient4692);stroke:#a7003f;stroke-linecap:round;stroke-linejoin:round"/>
  </clipPath>
  <clipPath id="clipPath4564" clipPathUnits="userSpaceOnUse">
   <circle style="fill:url(#radialGradient4568)" cx="128" cy="924.362" r="109.647"/>
  </clipPath>
  <clipPath id="clipPath6215" clipPathUnits="userSpaceOnUse">
   <path d="m 105.17325,806.18572 c -3.06859,0.56361 -6.11393,1.24721 -9.129005,2.04923 -3.838255,1.06506 -7.62084,2.32142 -11.333578,3.76438 -3.712189,1.44307 -7.34989,3.07087 -10.899472,4.87732 -3.549153,1.80656 -7.005749,3.78947 -10.35684,5.94129 -3.351877,2.15253 -6.593991,4.47137 -9.714191,6.94783 -3.119992,2.47544 -6.114241,5.10535 -8.971529,7.87988 -0.367219,0.38909 -0.731819,0.78065 -1.093777,1.17464 2.60205,17.85956 16.832359,40.03752 30.863064,55.74236 -4.76734,8.84435 -7.265993,18.73329 -7.272057,28.78068 0.02104,2.87431 0.246096,5.7435 0.673482,8.58593 -20.257302,-9.18513 -43.077023,-26.53494 -52.798465,-47.36396 -0.440667,1.15171 -0.863474,2.31018 -1.268271,3.47498 -1.176789,3.80495 -2.162562,7.66637 -2.953625,11.56979 -0.79154,3.90311 -1.3874065,7.84335 -1.7853678,11.80598 -0.39733,3.96334 -0.5961891,7.94407 -0.5958321,11.92728 -4.394e-4,2.81936 0.098928,5.63785 0.2979155,8.45018 0.282275,3.97319 0.763088,7.92978 1.4406374,11.85493 0.625626,3.51826 1.408798,7.00668 2.347153,10.45473 16.778133,6.68355 43.114514,5.45001 63.748015,1.14301 6.818545,11.02763 16.987182,19.58379 29.018153,24.41667 -18.071844,12.93645 -44.490188,24.02095 -67.37308,22.03245 1.384097,1.665 2.813203,3.2921 4.285735,4.8794 2.774977,2.8571 5.691103,5.5737 8.737453,8.1395 3.046107,2.5658 6.218619,4.9777 9.505651,7.2266 3.287242,2.2488 6.684891,4.3319 10.180217,6.2413 3.495379,1.9096 7.084075,3.6433 10.752641,5.1944 3.66896,1.5509 7.413193,2.9174 11.218668,4.0942 1.438565,0.3959 2.884421,0.7648 4.336807,1.1066 14.138748,-11.1844 26.206378,-34.5828 32.780368,-54.56406 12.95816,-0.38251 25.45395,-4.90132 35.65955,-12.89544 2.15922,22.12638 -1.46693,50.5581 -14.64692,69.3832 3.06859,-0.5636 6.11393,-1.2473 9.129,-2.0493 3.83826,-1.0651 7.62084,-2.3214 11.33358,-3.7644 3.71219,-1.4431 7.34989,-3.0709 10.89947,-4.8773 3.54915,-1.8066 7.00575,-3.7895 10.35684,-5.9413 3.35188,-2.1525 6.59399,-4.4714 9.71419,-6.9478 3.11999,-2.4754 6.11424,-5.1054 8.97153,-7.8799 0.36722,-0.3891 0.73182,-0.7806 1.09378,-1.1746 -2.60204,-17.85957 -16.83236,-40.03755 -30.86307,-55.74238 4.76735,-8.84435 7.266,-18.7333 7.27207,-28.78069 -0.021,-2.8743 -0.24611,-5.74349 -0.6735,-8.58592 20.25731,9.18513 43.07704,26.53494 52.79848,47.36396 0.44067,-1.15171 0.86347,-2.31018 1.26827,-3.47499 1.17679,-3.80495 2.16256,-7.66636 2.95362,-11.56978 0.79154,-3.90311 1.38741,-7.84335 1.78537,-11.80598 0.39733,-3.96334 0.59619,-7.94408 0.59583,-11.92729 4.4e-4,-2.81936 -0.0989,-5.63784 -0.29791,-8.45017 -0.28228,-3.97319 -0.76309,-7.92978 -1.44064,-11.85493 -0.62776,-3.53416 -1.41449,-7.03823 -2.35779,-10.50154 -20.56165,-7.32804 -45.89823,-4.79548 -63.74906,-1.11372 -6.81835,-11.01918 -16.98234,-19.56874 -29.00647,-24.39915 18.07184,-12.93645 44.49019,-24.02091 67.37307,-22.03241 -1.38409,-1.66502 -2.8132,-3.2921 -4.28573,-4.87944 -2.77498,-2.85712 -5.6911,-5.57368 -8.73745,-8.13949 -3.04611,-2.56581 -6.21862,-4.97769 -9.50565,-7.22659 -3.28724,-2.24885 -6.68489,-4.3319 -10.18022,-6.24135 -3.49538,-1.90963 -7.08407,-3.64325 -10.75264,-5.19438 -3.66896,-1.55092 -7.41319,-2.91736 -11.21867,-4.09421 -1.42662,-0.39262 -2.86041,-0.75869 -4.30063,-1.09804 -14.14688,11.18369 -26.2293,34.57475 -32.8107,54.55552 -12.96018,0.38127 -25.4582,4.90015 -35.665394,12.89544 -2.15922,-22.12637 1.466931,-50.55807 14.646924,-69.38315 z" style="fill:url(#radialGradient6219)"/>
  </clipPath>
 </defs>
 <g id="layer1" transform="translate(6.19e-5,-173)">
  <g id="layer9">
   <path style="fill:#deddda" d="M 64 4 A 59.999995 59.999995 0 0 0 4 64 A 59.999995 59.999995 0 0 0 13.857422 96.902344 L 3.5136719 126.07617 L 34.349609 116.16406 L 29.496094 113.27148 L 12.486328 117.33008 L 17.833984 102.24609 A 59.999995 59.999995 0 0 0 64 124 A 59.999995 59.999995 0 0 0 124 64 A 59.999995 59.999995 0 0 0 64 4 z" transform="translate(-6.19e-5,173)"/>
   <rect style="fill:#d5d3cf" width="112" height="114" x="8" y="179" rx="56" ry="56"/>
   <path style="fill:#f6f5f4" d="M 123.99993,235 A 59.999995,59.999995 0 0 1 63.999945,294.99999 59.999995,59.999995 0 0 1 3.9999381,235 59.999995,59.999995 0 0 1 63.999945,175 59.999995,59.999995 0 0 1 123.99993,235 Z"/>
   <circle style="fill:#169d0c" cx="64" cy="235" r="54"/>
   <path d="m 64.000045,181 a 54,54 0 0 0 -54,54 54,54 0 0 0 0.0415,1.1709 A 54,54 0 0 1 64.000045,183 54,54 0 0 1 117.95854,235.82813 54,54 0 0 0 118.00004,235 54,54 0 0 0 64.000035,181 Z" style="opacity:0.1"/>
  </g>
 </g>
 <path style="fill:#ffffff" class="ColorScheme-ButtonBackground" d="m 41.643649,28.605163 c -0.52454,-0.0477 -1.033768,-0.0451 -1.409564,0.0341 h -0.0088 c -1.099339,0.22706 -2.477404,1.026789 -5.459711,3.195874 -1.791922,1.311603 -4.250127,3.66531 -4.82804,4.614231 -1.340878,2.248706 -1.265194,4.158796 0.367483,8.553405 2.799877,7.536236 6.891198,14.797725 12.270026,21.806348 10.2948,13.409124 23.263049,23.160819 39.502335,29.701322 2.06929,0.835612 2.74301,0.975607 4.36606,0.896862 1.96429,-0.09188 3.4561,-0.686862 5.56038,-2.248711 2.3274,-1.723719 5.65663,-5.770515 6.5141,-7.927351 0.80934,-2.047465 0.59497,-3.90243 -0.6081,-5.350529 -0.68248,-0.800607 -5.72663,-4.825533 -8.08465,-6.439881 -1.7893,-1.220603 -4.56293,-2.900568 -5.836,-3.54806 -1.67555,-0.835607 -3.34673,-0.979982 -4.97853,-0.4375 -1.28619,0.433125 -1.70618,0.800612 -3.58297,3.101818 -0.97121,1.176854 -1.86804,2.244336 -1.98178,2.344957 -0.12688,0.100625 -0.53373,0.32375 -0.91434,0.494366 -1.51368,0.691237 -3.587342,0.275625 -6.973448,-1.378099 -2.638007,-1.273103 -4.974156,-2.887447 -7.620042,-5.263028 -2.254337,-2.008086 -4.528363,-4.637412 -5.801433,-6.680502 -1.641866,-2.633702 -2.893499,-6.049198 -2.905311,-7.938288 0,-0.8133 0.336425,-1.968278 0.752029,-2.554957 0.161867,-0.235812 1.190386,-1.13004 2.289776,-1.999335 8.74962,-6.04006 -1.639124,-17.688293 -7.758286,-22.002783 -0.359608,-0.227062 -0.989144,-0.539429 -1.392939,-0.675049 -0.41692,-0.14744 -0.953709,-0.25113 -1.478248,-0.29925 z"/>
 <g transform="matrix(0.85142587,0,0,0.85142587,3.6631006,16.987057)" style="opacity:0.1">
  <path d="M 17.919293,86.819578 5.0937626,122.98874 43.82323,110.36743 42.101983,110.57233 25.718759,83.144985 Z"/>
 </g>
 <g transform="matrix(0.85142587,0,0,0.85142587,3.6631006,15.284205)">
  <path d="M 17.919293,86.819578 5.0937626,122.98874 43.82323,110.36743 45.093762,102.51999 25.718759,83.144985 Z" style="fill:#169d0c"/>
  <path style="fill:#f6f5f4" d="M 15.02894,84.918546 14.855469,85.734375 -0.17578125,128.125 45.446723,112.9668 c -3.124116,-1.33718 -4.969981,-2.53355 -7.793445,-4.11422 l -27.289997,9.00094 9.104671,-25.784498 c -1.61215,-2.372796 -1.632254,-2.387744 -4.439012,-7.150476 z"/>
 </g>
</svg>
